X:1
T:Hor pensate
T:Eliseo Ghibel
T:Source : Primo libro de Madrigali a tre voci---Venetia---A.Gardano---1552. ( First print : Venetia---G.Scotto---1551) Editor : André Vierendeels (09/11/17). Notes : Original clefs : C4, C4, F4 Editorial accidentals above the staff
T:Hor pensate
T:©
T:©
T:©
C:Eliseo Ghibel
Z:©
%%score [ 1 2 3 ]
L:1/8
Q:1/4=100
M:4/4
K:C
V:1 treble-8 nm="Tenor 1" snm="T 1"
V:2 treble-8 nm="Tenor 2" snm="T 2"
V:3 bass nm="Bass" snm="B"
V:1
 z4 d4 | e2 e2 d2 B2 | c4 d4 | e2 c3 B G2 | A4 B2 d2 | d2 d2 B2 G2 | d4 e4 | d4 z2 G2 | %8
w: Hor|pen- sa- te'al mio|mal qual|es- * * ser|de- ve che|co- me ce- r'al|fuo- *|co, O|
 ABcA B2 A2 | G2 F2 ED G2- | GFFE G4 | z2 d4 e2- | e2 c4 BA | B4 z4 | z2 d2 e2 c2 | d4 G2 c2- | %16
w: co- me fuo- co'in ac- qua|mi dis- fuc- * *|* * * * cio,|mi dis-|* fuc- * *|cio,|ne cer- co'u-|scir dal lac-|
 c2 A2 z2 G2 | A4 F2 G2- | G2 d2 e2 c2 | d3 c BA G2 | c2 AG AB c2- | cB B2 c4 | z2 d2 e4 | %23
w: * cio, ne|cer- co'u- scir,|_ ne cer- co'u-|scir _ _ _ _|dal lac- * * * *|* * * cio,|si m'e|
 e2 d4 d2 | d4 B2 cB | AG G3 F FE | G2 B2 c4 | c2 B4 B2 | A4 G4 | A2 B2 c4 | B2 B4 e2- | %31
w: dol- ce'il tor-|men- to'el pian- *|ger _ gio- * * *|co, si m'e|dol- ce'il tor-|men- to'el|pian- ger gio-|co, el pian-|
 ed B2 c2 d2 | e8 | d8 |] %34
w: * * * * ger|gio-|co.|
V:2
 B4 B2 A2 | B2 c2 B2 d2- | d2 c4 B2 | G2 A3 G G2- |"^#" G2 F2 G4 | z2 d2 d2 d2 | B2 G4 c2- | %7
w: Hor pen- sa-|te'al mio mal qual|_ es- ser|de- * * *|* * ve,|che co- me|ce- r'al fuo-|
 cB B2 c4- | c4 z4 | z4 z2 G2 | ABcA B3 A | G2 FE D2 G2- | GFFE G2 d2- | d2 e2 c2 d2- | %14
w: * * * co,|_|O|co- me fuo- co'in ac- qua|mi _ _ dis- fac-|* * * * cio, ne|_ cer- co'u- scir|
 dcBA G2 c2- | cB B2 c2 G2 | A2 F4 G2 | z4 A2 B2- | B2 G2 B2 A2- | A2 d4 e2- | e2 c2 d2 e2 | %21
w: _ _ _ _ _ dal|_ _ lac- cio, ne|cer- co'u- scir,|ne cer-|* co'u- scir dal,|_ ne cer-|* co'u- scir dal|
 f4 e4 | z2 B2 c4 | c2 B4 B2 | A4 G4 | A2 B2 c4 | B2 d2 e4 | e2 d4 d2 | d4 B2 cB | %29
w: lac- cio,|si m'e|dol- ce'il tor-|men- to'el|pian- ger gio-|co, si m'e|dol- ce'il tor-|men- to'el pian- *|
"^#""^#" AG G3 F FE | G2 d4 cd | e2 e4 d2 | c6 BA | B8 |] %34
w: ger _ gio- * * *|co, el _ _|_ pian- ger|gio- * *|co.|
V:3
 G,4 G,2 F,2 | E,2 C,2 G,4 | A,4 G,4 | C,2 F,4 E,2 | D,4 G,,4- | G,,4 z2 G,2 | G,2 G,2 E,2 C,2 | %7
w: Hor pen- sa-|te'al mio mal|qual es-|ser de- *|* ve,|_ che|co- me ce- r'al|
 G,4 C,4 | z2 C,2 D,E,F,D, | E,2 D,2 C,3 B,, | A,,4 G,,2 G,,2 | C,2 D,2 B,,2 C,2 | A,,4 G,,4 | %13
w: fuo- co,|O co- me fue- co'in|ac- qua mi dis-|fuc- cio, in|ac- qua mi dis-|fac- cio,|
 z2 G,2 A,2 F,2 | G,3 F, E,2 F,2 | D,4 C,4 | z2 D,4 E,2 | C,2 D,3 C, B,,A,, | G,,2 G,4 A,2 | %19
w: ne cer- co'u-|scir _ _ dal|lac- cio,|ne cer-|co'u- scir, _ _ _|_ ne cer-|
 F,2 G,3 F, E,D, | C,2 F,3 E, C,2 |"^#""^#" D,4 C,4 | z2 G,2 C,4 | C,2 G,4 G,2 | D,4 E,2 C,2- | %25
w: co'u- scir _ _ _|_ dal _ _|lac- cio,|si m'e|dol- ce'il tor-|men- to'el pian-|
 C,2 B,,2 A,,4 | G,,2 G,2 C,4 | C,2 G,4 G,2 | D,4 E,2 C,2- | C,2 B,,2 A,,4 | G,,6 C,2- | %31
w: * ger gio-|co, si m'e|dol- ce'il tor-|men- to'el pian-|* ger gio-|co, el|
 C,2 E,3 D, B,,2 | C,8 | G,,8 |] %34
w: _ pian- * ger|gio-|co.|

